src/images/icons/home.svg

<svg width="908" height="856" viewBox="0 0 908 856" fill="none" xmlns="http://www.w3.org/2000/svg">
<path d="M888.5 421L476.6 9.40006C473.634 6.42847 470.111 4.07093 466.233 2.46239C462.355 0.853845 458.198 0.0258789 454 0.0258789C449.802 0.0258789 445.644 0.853845 441.766 2.46239C437.888 4.07093 434.366 6.42847 431.4 9.40006L19.5 421C7.49995 433 0.699951 449.3 0.699951 466.3C0.699951 501.6 29.3999 530.3 64.6999 530.3H108.1V824C108.1 841.7 122.4 856 140.1 856H390V632H502V856H767.9C785.6 856 799.9 841.7 799.9 824V530.3H843.3C860.3 530.3 876.6 523.6 888.6 511.5C913.5 486.5 913.5 446 888.5 421V421Z" fill="black"/>
</svg>

<?xml version="1.0" encoding="utf-8"?>
<!-- Generator: Adobe Illustrator 25.0.0, SVG Export Plug-In . SVG Version: 6.00 Build 0)  -->
<svg version="1.1" id="Layer_1" xmlns="http://www.w3.org/2000/svg" xmlns:xlink="http://www.w3.org/1999/xlink" x="0px" y="0px"
	 viewBox="0 0 908 856" style="enable-background:new 0 0 908 856;" xml:space="preserve">
<style type="text/css">
	.st0{fill:#B2B2B2;}
</style>
<path class="st0" d="M888.5,421L476.6,9.4c-3-3-6.5-5.3-10.4-6.9c-3.9-1.6-8-2.4-12.2-2.4s-8.4,0.8-12.2,2.4
	c-3.9,1.6-7.4,4-10.4,6.9L19.5,421c-12,12-18.8,28.3-18.8,45.3c0,35.3,28.7,64,64,64h43.4V824c0,17.7,14.3,32,32,32H390V632h112v224
	h265.9c17.7,0,32-14.3,32-32V530.3h43.4c17,0,33.3-6.7,45.3-18.8C913.5,486.5,913.5,446,888.5,421L888.5,421z"/>
</svg>
